X: 4
T: The Flowers Of Red Hill
R: reel
M: 4/4
L: 1/8
K: Ador
|: eA A2 eAfA | eA A2 eAdA | eA A2 e2 af | gedB GA (3Bcd :||
| ea a2 bgag | eaag ed (3Bcd | ea a2 bgag | edef gd (3Bcd |
ea a2 bgag | eaaf g3a | bg g2 aged | eaag ed (3Bcd ||


Tune 442	Setting 442

